X:1
T:[ID 2-67]
T:[ID 2-67]
T:Bezeichnung standardisiert: Polonaise Polonoise
T:Urheber unbekannt Datum in der hier transkribierten schriftlichen Quelle: 1767
C:Urheber unbekannt
C:Datum in der hier transkribierten schriftlichen Quelle: 1767
L:1/8
M:3/4
K:G
V:1 treble 
V:1
 gb/g/ dg/d/ Bd/B/ | GB/d/ GB/d/ D2 |"^O)" dd/e/ d2 c2 | BB/c/ B2 A2 |"^O)" dd/e/ d2 c2 | %5
 BB/c/ B2 A2 | Gg/a/ bGEc | B/A/G/F/ G2 G2 :: gG/F/ Gbag | aF/E/ Fagf | gb/a/ b/a/g/f/ g/f/e/d/ | %11
 ^c/d/e/c/ A2 A2 |"^O)" aa/b/ a2 g2 | ff/g/ f2 e2 |"^O)" aa/b/ a2 g2 | ff/g/ f2 e2 | df/g/ aAB^c | %17
 dd/^c/ d2 D2 | G=f f2 e2 | =f/e/d/c/ e/d/c/B/ c2 | Ag g2 f2 | g/f/e/d/ f/e/d/^c/ d2"^2)" | %22
 dd/e/ d2 c2 | BB/c/ B2 A2 | Gg/a/ bGFc | B/A/G/F/ G2 G2 :| %26

